icons/modern/sweat-droplets.svg

<svg width="32" height="32" viewBox="0 0 32 32" fill="none" xmlns="http://www.w3.org/2000/svg">
<g filter="url(#filter0_i_7143_6226)">
<path d="M12.0183 23.4855C12.4686 22.0493 12.2239 20.7206 11.617 19.6264L8.14233 13.5202C7.75081 12.8266 6.74265 12.8266 6.35114 13.5202L2.92537 19.5385C2.50449 20.2712 2.25 21.1114 2.25 22.0103C2.25 25.0585 4.98083 27.4619 8.13254 26.9245C9.95309 26.6216 11.4702 25.2441 12.0183 23.4855Z" fill="url(#paint0_radial_7143_6226)"/>
<path d="M12.0183 23.4855C12.4686 22.0493 12.2239 20.7206 11.617 19.6264L8.14233 13.5202C7.75081 12.8266 6.74265 12.8266 6.35114 13.5202L2.92537 19.5385C2.50449 20.2712 2.25 21.1114 2.25 22.0103C2.25 25.0585 4.98083 27.4619 8.13254 26.9245C9.95309 26.6216 11.4702 25.2441 12.0183 23.4855Z" fill="url(#paint1_radial_7143_6226)"/>
</g>
<path d="M12.0183 23.4855C12.4686 22.0493 12.2239 20.7206 11.617 19.6264L8.14233 13.5202C7.75081 12.8266 6.74265 12.8266 6.35114 13.5202L2.92537 19.5385C2.50449 20.2712 2.25 21.1114 2.25 22.0103C2.25 25.0585 4.98083 27.4619 8.13254 26.9245C9.95309 26.6216 11.4702 25.2441 12.0183 23.4855Z" fill="url(#paint2_linear_7143_6226)"/>
<path d="M12.0183 23.4855C12.4686 22.0493 12.2239 20.7206 11.617 19.6264L8.14233 13.5202C7.75081 12.8266 6.74265 12.8266 6.35114 13.5202L2.92537 19.5385C2.50449 20.2712 2.25 21.1114 2.25 22.0103C2.25 25.0585 4.98083 27.4619 8.13254 26.9245C9.95309 26.6216 11.4702 25.2441 12.0183 23.4855Z" fill="url(#paint3_radial_7143_6226)"/>
<g filter="url(#filter1_i_7143_6226)">
<path d="M27.6072 21.8511C26.8299 20.358 25.5842 19.5219 24.2489 19.1237L16.7053 17.0434C15.8483 16.8045 15.061 17.5908 15.2902 18.4568L17.3431 25.8924C17.5922 26.7982 18.0406 27.6542 18.7581 28.3709C21.1597 30.7697 25.2056 30.5209 27.2684 27.6144C28.4542 25.9421 28.5638 23.6726 27.6072 21.8511Z" fill="url(#paint4_radial_7143_6226)"/>
<path d="M27.6072 21.8511C26.8299 20.358 25.5842 19.5219 24.2489 19.1237L16.7053 17.0434C15.8483 16.8045 15.061 17.5908 15.2902 18.4568L17.3431 25.8924C17.5922 26.7982 18.0406 27.6542 18.7581 28.3709C21.1597 30.7697 25.2056 30.5209 27.2684 27.6144C28.4542 25.9421 28.5638 23.6726 27.6072 21.8511Z" fill="url(#paint5_radial_7143_6226)"/>
</g>
<path d="M27.6072 21.8511C26.8299 20.358 25.5842 19.5219 24.2489 19.1237L16.7053 17.0434C15.8483 16.8045 15.061 17.5908 15.2902 18.4568L17.3431 25.8924C17.5922 26.7982 18.0406 27.6542 18.7581 28.3709C21.1597 30.7697 25.2056 30.5209 27.2684 27.6144C28.4542 25.9421 28.5638 23.6726 27.6072 21.8511Z" fill="url(#paint6_radial_7143_6226)"/>
<g filter="url(#filter2_i_7143_6226)">
<path d="M25.4708 2.29886C23.517 1.71579 21.7252 2.03648 20.237 2.82362L11.9561 7.33267C11.0146 7.84771 11.0146 9.14989 11.9561 9.66494L20.1257 14.1157C21.1178 14.6599 22.2516 15 23.4765 15C27.6069 15 30.8767 11.453 30.1478 7.3521C29.7227 4.98096 27.86 3.01797 25.4708 2.29886Z" fill="url(#paint7_radial_7143_6226)"/>
<path d="M25.4708 2.29886C23.517 1.71579 21.7252 2.03648 20.237 2.82362L11.9561 7.33267C11.0146 7.84771 11.0146 9.14989 11.9561 9.66494L20.1257 14.1157C21.1178 14.6599 22.2516 15 23.4765 15C27.6069 15 30.8767 11.453 30.1478 7.3521C29.7227 4.98096 27.86 3.01797 25.4708 2.29886Z" fill="url(#paint8_radial_7143_6226)"/>
</g>
<path d="M25.4708 2.29886C23.517 1.71579 21.7252 2.03648 20.237 2.82362L11.9561 7.33267C11.0146 7.84771 11.0146 9.14989 11.9561 9.66494L20.1257 14.1157C21.1178 14.6599 22.2516 15 23.4765 15C27.6069 15 30.8767 11.453 30.1478 7.3521C29.7227 4.98096 27.86 3.01797 25.4708 2.29886Z" fill="url(#paint9_linear_7143_6226)"/>
<g filter="url(#filter3_f_7143_6226)">
<circle cx="26" cy="7.0625" r="2.25" fill="#8AF6FF"/>
</g>
<g filter="url(#filter4_f_7143_6226)">
<circle cx="24.9375" cy="23.5" r="2.25" fill="#8AF6FF"/>
</g>
<g filter="url(#filter5_f_7143_6226)">
<circle cx="9.25" cy="20.875" r="1.6875" fill="#8AF6FF"/>
</g>
<defs>
<filter id="filter0_i_7143_6226" x="2.25" y="12.5" width="10" height="14.5" filterUnits="userSpaceOnUse" color-interpolation-filters="sRGB">
<feFlood flood-opacity="0" result="BackgroundImageFix"/>
<feBlend mode="normal" in="SourceGraphic" in2="BackgroundImageFix" result="shape"/>
<feColorMatrix in="SourceAlpha" type="matrix" values="0 0 0 0 0 0 0 0 0 0 0 0 0 0 0 0 0 0 127 0" result="hardAlpha"/>
<feOffset dy="-0.5"/>
<feGaussianBlur stdDeviation="0.5"/>
<feComposite in2="hardAlpha" operator="arithmetic" k2="-1" k3="1"/>
<feColorMatrix type="matrix" values="0 0 0 0 0.247059 0 0 0 0 0.501961 0 0 0 0 0.964706 0 0 0 1 0"/>
<feBlend mode="normal" in2="shape" result="effect1_innerShadow_7143_6226"/>
</filter>
<filter id="filter1_i_7143_6226" x="15.25" y="16.5" width="13" height="13.5" filterUnits="userSpaceOnUse" color-interpolation-filters="sRGB">
<feFlood flood-opacity="0" result="BackgroundImageFix"/>
<feBlend mode="normal" in="SourceGraphic" in2="BackgroundImageFix" result="shape"/>
<feColorMatrix in="SourceAlpha" type="matrix" values="0 0 0 0 0 0 0 0 0 0 0 0 0 0 0 0 0 0 127 0" result="hardAlpha"/>
<feOffset dy="-0.5"/>
<feGaussianBlur stdDeviation="0.5"/>
<feComposite in2="hardAlpha" operator="arithmetic" k2="-1" k3="1"/>
<feColorMatrix type="matrix" values="0 0 0 0 0.247059 0 0 0 0 0.501961 0 0 0 0 0.964706 0 0 0 1 0"/>
<feBlend mode="normal" in2="shape" result="effect1_innerShadow_7143_6226"/>
</filter>
<filter id="filter2_i_7143_6226" x="11.25" y="1.98" width="19" height="13.02" filterUnits="userSpaceOnUse" color-interpolation-filters="sRGB">
<feFlood flood-opacity="0" result="BackgroundImageFix"/>
<feBlend mode="normal" in="SourceGraphic" in2="BackgroundImageFix" result="shape"/>
<feColorMatrix in="SourceAlpha" type="matrix" values="0 0 0 0 0 0 0 0 0 0 0 0 0 0 0 0 0 0 127 0" result="hardAlpha"/>
<feOffset dy="-0.02"/>
<feGaussianBlur stdDeviation="0.5"/>
<feComposite in2="hardAlpha" operator="arithmetic" k2="-1" k3="1"/>
<feColorMatrix type="matrix" values="0 0 0 0 0.247059 0 0 0 0 0.501961 0 0 0 0 0.964706 0 0 0 1 0"/>
<feBlend mode="normal" in2="shape" result="effect1_innerShadow_7143_6226"/>
</filter>
<filter id="filter3_f_7143_6226" x="20.75" y="1.8125" width="10.5" height="10.5" filterUnits="userSpaceOnUse" color-interpolation-filters="sRGB">
<feFlood flood-opacity="0" result="BackgroundImageFix"/>
<feBlend mode="normal" in="SourceGraphic" in2="BackgroundImageFix" result="shape"/>
<feGaussianBlur stdDeviation="1.5" result="effect1_foregroundBlur_7143_6226"/>
</filter>
<filter id="filter4_f_7143_6226" x="19.6875" y="18.25" width="10.5" height="10.5" filterUnits="userSpaceOnUse" color-interpolation-filters="sRGB">
<feFlood flood-opacity="0" result="BackgroundImageFix"/>
<feBlend mode="normal" in="SourceGraphic" in2="BackgroundImageFix" result="shape"/>
<feGaussianBlur stdDeviation="1.5" result="effect1_foregroundBlur_7143_6226"/>
</filter>
<filter id="filter5_f_7143_6226" x="4.5625" y="16.1875" width="9.375" height="9.375" filterUnits="userSpaceOnUse" color-interpolation-filters="sRGB">
<feFlood flood-opacity="0" result="BackgroundImageFix"/>
<feBlend mode="normal" in="SourceGraphic" in2="BackgroundImageFix" result="shape"/>
<feGaussianBlur stdDeviation="1.5" result="effect1_foregroundBlur_7143_6226"/>
</filter>
<radialGradient id="paint0_radial_7143_6226" cx="0" cy="0" r="1" gradientUnits="userSpaceOnUse" gradientTransform="translate(8.93269 19.3269) rotate(129.634) scale(8.21533 10.5736)">
<stop offset="0.00147779" stop-color="#55EBFF"/>
<stop offset="1" stop-color="#01A6F0"/>
</radialGradient>
<radialGradient id="paint1_radial_7143_6226" cx="0" cy="0" r="1" gradientUnits="userSpaceOnUse" gradientTransform="translate(8.125 16.25) rotate(89.5559) scale(16.1255 12.1799)">
<stop offset="0.348985" stop-color="#3F80F6" stop-opacity="0"/>
<stop offset="0.976806" stop-color="#3F80F7"/>
</radialGradient>
<linearGradient id="paint2_linear_7143_6226" x1="6.625" y1="17.75" x2="3.25001" y2="16.2855" gradientUnits="userSpaceOnUse">
<stop offset="0.147369" stop-color="#74B5CA" stop-opacity="0"/>
<stop offset="0.94633" stop-color="#74B5CA"/>
</linearGradient>
<radialGradient id="paint3_radial_7143_6226" cx="0" cy="0" r="1" gradientUnits="userSpaceOnUse" gradientTransform="translate(7.25 18.4375) rotate(90) scale(10.8125)">
<stop offset="0.619792" stop-color="#A158FE" stop-opacity="0"/>
<stop offset="1" stop-color="#A158FE"/>
</radialGradient>
<radialGradient id="paint4_radial_7143_6226" cx="0" cy="0" r="1" gradientUnits="userSpaceOnUse" gradientTransform="translate(23.9375 22.875) rotate(139.226) scale(8.99588 11.6563)">
<stop offset="0.00147779" stop-color="#55EBFF"/>
<stop offset="1" stop-color="#01A6F0"/>
</radialGradient>
<radialGradient id="paint5_radial_7143_6226" cx="0" cy="0" r="1" gradientUnits="userSpaceOnUse" gradientTransform="translate(24.3125 21.875) rotate(107.558) scale(16.7818 25.995)">
<stop offset="0.328918" stop-color="#3F80F6" stop-opacity="0"/>
<stop offset="0.833333" stop-color="#3F80F7"/>
<stop offset="1" stop-color="#8437E6"/>
</radialGradient>
<radialGradient id="paint6_radial_7143_6226" cx="0" cy="0" r="1" gradientUnits="userSpaceOnUse" gradientTransform="translate(23.3125 21.75) rotate(101.182) scale(10.958 16.1469)">
<stop offset="0.558974" stop-color="#A158FE" stop-opacity="0"/>
<stop offset="1" stop-color="#A158FE"/>
</radialGradient>
<radialGradient id="paint7_radial_7143_6226" cx="0" cy="0" r="1" gradientUnits="userSpaceOnUse" gradientTransform="translate(26.25 7.25) rotate(138.366) scale(10.5364 14.0253)">
<stop offset="0.00147779" stop-color="#55EBFF"/>
<stop offset="1" stop-color="#01A6F0"/>
</radialGradient>
<radialGradient id="paint8_radial_7143_6226" cx="0" cy="0" r="1" gradientUnits="userSpaceOnUse" gradientTransform="translate(26.4375 5.625) rotate(114.184) scale(14.7988 25.8088)">
<stop offset="0.508756" stop-color="#3F80F6" stop-opacity="0"/>
<stop offset="0.94633" stop-color="#3F80F7"/>
</radialGradient>
<linearGradient id="paint9_linear_7143_6226" x1="19.875" y1="5.9375" x2="17.8125" y2="2" gradientUnits="userSpaceOnUse">
<stop offset="0.147369" stop-color="#74B5CA" stop-opacity="0"/>
<stop offset="0.94633" stop-color="#74B5CA"/>
</linearGradient>
</defs>
</svg>

<svg width="32" height="32" fill="none" xmlns="http://www.w3.org/2000/svg"><g filter="url(#a)"><path d="M12.018 23.485c.45-1.436.206-2.764-.401-3.859L8.142 13.52a1.031 1.031 0 0 0-1.79 0l-3.427 6.018a4.95 4.95 0 0 0-.675 2.472c0 3.048 2.73 5.452 5.883 4.914 1.82-.302 3.337-1.68 3.885-3.439Z" fill="url(#b)"/><path d="M12.018 23.485c.45-1.436.206-2.764-.401-3.859L8.142 13.52a1.031 1.031 0 0 0-1.79 0l-3.427 6.018a4.95 4.95 0 0 0-.675 2.472c0 3.048 2.73 5.452 5.883 4.914 1.82-.302 3.337-1.68 3.885-3.439Z" fill="url(#c)"/></g><path d="M12.018 23.485c.45-1.436.206-2.764-.401-3.859L8.142 13.52a1.031 1.031 0 0 0-1.79 0l-3.427 6.018a4.95 4.95 0 0 0-.675 2.472c0 3.048 2.73 5.452 5.883 4.914 1.82-.302 3.337-1.68 3.885-3.439Z" fill="url(#d)"/><path d="M12.018 23.485c.45-1.436.206-2.764-.401-3.859L8.142 13.52a1.031 1.031 0 0 0-1.79 0l-3.427 6.018a4.95 4.95 0 0 0-.675 2.472c0 3.048 2.73 5.452 5.883 4.914 1.82-.302 3.337-1.68 3.885-3.439Z" fill="url(#e)"/><g filter="url(#f)"><path d="M27.607 21.851c-.777-1.493-2.023-2.33-3.358-2.727l-7.544-2.08c-.857-.24-1.644.547-1.415 1.413l2.053 7.435c.25.906.698 1.762 1.415 2.479a5.575 5.575 0 0 0 8.51-.757c1.186-1.672 1.296-3.941.34-5.763Z" fill="url(#g)"/><path d="M27.607 21.851c-.777-1.493-2.023-2.33-3.358-2.727l-7.544-2.08c-.857-.24-1.644.547-1.415 1.413l2.053 7.435c.25.906.698 1.762 1.415 2.479a5.575 5.575 0 0 0 8.51-.757c1.186-1.672 1.296-3.941.34-5.763Z" fill="url(#h)"/></g><path d="M27.607 21.851c-.777-1.493-2.023-2.33-3.358-2.727l-7.544-2.08c-.857-.24-1.644.547-1.415 1.413l2.053 7.435c.25.906.698 1.762 1.415 2.479a5.575 5.575 0 0 0 8.51-.757c1.186-1.672 1.296-3.941.34-5.763Z" fill="url(#i)"/><g filter="url(#j)"><path d="M25.47 2.299c-1.953-.583-3.745-.263-5.233.525l-8.28 4.509a1.316 1.316 0 0 0 0 2.332l8.169 4.45c.992.545 2.126.885 3.35.885 4.13 0 7.4-3.547 6.672-7.648-.425-2.371-2.288-4.334-4.677-5.053Z" fill="url(#k)"/><path d="M25.47 2.299c-1.953-.583-3.745-.263-5.233.525l-8.28 4.509a1.316 1.316 0 0 0 0 2.332l8.169 4.45c.992.545 2.126.885 3.35.885 4.13 0 7.4-3.547 6.672-7.648-.425-2.371-2.288-4.334-4.677-5.053Z" fill="url(#l)"/></g><path d="M25.47 2.299c-1.953-.583-3.745-.263-5.233.525l-8.28 4.509a1.316 1.316 0 0 0 0 2.332l8.169 4.45c.992.545 2.126.885 3.35.885 4.13 0 7.4-3.547 6.672-7.648-.425-2.371-2.288-4.334-4.677-5.053Z" fill="url(#m)"/><g filter="url(#n)"><circle cx="26" cy="7.063" r="2.25" fill="#8AF6FF"/></g><g filter="url(#o)"><circle cx="24.938" cy="23.5" r="2.25" fill="#8AF6FF"/></g><g filter="url(#p)"><circle cx="9.25" cy="20.875" r="1.688" fill="#8AF6FF"/></g><defs><radialGradient id="b" cx="0" cy="0" r="1" gradientUnits="userSpaceOnUse" gradientTransform="rotate(129.634 -.077 11.764) scale(8.21533 10.5736)"><stop offset=".001" stop-color="#55EBFF"/><stop offset="1" stop-color="#01A6F0"/></radialGradient><radialGradient id="c" cx="0" cy="0" r="1" gradientUnits="userSpaceOnUse" gradientTransform="matrix(.12499 16.12502 -12.17953 .0944 8.125 16.25)"><stop offset=".349" stop-color="#3F80F6" stop-opacity="0"/><stop offset=".977" stop-color="#3F80F7"/></radialGradient><radialGradient id="e" cx="0" cy="0" r="1" gradientUnits="userSpaceOnUse" gradientTransform="rotate(90 -5.594 12.844) scale(10.8125)"><stop offset=".62" stop-color="#A158FE" stop-opacity="0"/><stop offset="1" stop-color="#A158FE"/></radialGradient><radialGradient id="g" cx="0" cy="0" r="1" gradientUnits="userSpaceOnUse" gradientTransform="matrix(-6.8125 5.875 -7.61246 -8.82722 23.938 22.875)"><stop offset=".001" stop-color="#55EBFF"/><stop offset="1" stop-color="#01A6F0"/></radialGradient><radialGradient id="h" cx="0" cy="0" r="1" gradientUnits="userSpaceOnUse" gradientTransform="matrix(-5.06258 15.99997 -24.78395 -7.84194 24.313 21.875)"><stop offset=".329" stop-color="#3F80F6" stop-opacity="0"/><stop offset=".833" stop-color="#3F80F7"/><stop offset="1" stop-color="#8437E6"/></radialGradient><radialGradient id="i" cx="0" cy="0" r="1" gradientUnits="userSpaceOnUse" gradientTransform="rotate(101.182 2.72 20.453) scale(10.958 16.1469)"><stop offset=".559" stop-color="#A158FE" stop-opacity="0"/><stop offset="1" stop-color="#A158FE"/></radialGradient><radialGradient id="k" cx="0" cy="0" r="1" gradientUnits="userSpaceOnUse" gradientTransform="matrix(-7.87495 7.00007 -9.31799 -10.48257 26.25 7.25)"><stop offset=".001" stop-color="#55EBFF"/><stop offset="1" stop-color="#01A6F0"/></radialGradient><radialGradient id="l" cx="0" cy="0" r="1" gradientUnits="userSpaceOnUse" gradientTransform="matrix(-6.0626 13.49998 -23.54368 -10.57305 26.438 5.625)"><stop offset=".509" stop-color="#3F80F6" stop-opacity="0"/><stop offset=".946" stop-color="#3F80F7"/></radialGradient><filter id="a" x="2.25" y="12.5" width="10" height="14.5" filterUnits="userSpaceOnUse" color-interpolation-filters="sRGB"><feFlood flood-opacity="0" result="BackgroundImageFix"/><feBlend in="SourceGraphic" in2="BackgroundImageFix" result="shape"/><feColorMatrix in="SourceAlpha" values="0 0 0 0 0 0 0 0 0 0 0 0 0 0 0 0 0 0 127 0" result="hardAlpha"/><feOffset dy="-.5"/><feGaussianBlur stdDeviation=".5"/><feComposite in2="hardAlpha" operator="arithmetic" k2="-1" k3="1"/><feColorMatrix values="0 0 0 0 0.247059 0 0 0 0 0.501961 0 0 0 0 0.964706 0 0 0 1 0"/><feBlend in2="shape" result="effect1_innerShadow_7143_6226"/></filter><filter id="f" x="15.25" y="16.5" width="13" height="13.5" filterUnits="userSpaceOnUse" color-interpolation-filters="sRGB"><feFlood flood-opacity="0" result="BackgroundImageFix"/><feBlend in="SourceGraphic" in2="BackgroundImageFix" result="shape"/><feColorMatrix in="SourceAlpha" values="0 0 0 0 0 0 0 0 0 0 0 0 0 0 0 0 0 0 127 0" result="hardAlpha"/><feOffset dy="-.5"/><feGaussianBlur stdDeviation=".5"/><feComposite in2="hardAlpha" operator="arithmetic" k2="-1" k3="1"/><feColorMatrix values="0 0 0 0 0.247059 0 0 0 0 0.501961 0 0 0 0 0.964706 0 0 0 1 0"/><feBlend in2="shape" result="effect1_innerShadow_7143_6226"/></filter><filter id="j" x="11.25" y="1.98" width="19" height="13.02" filterUnits="userSpaceOnUse" color-interpolation-filters="sRGB"><feFlood flood-opacity="0" result="BackgroundImageFix"/><feBlend in="SourceGraphic" in2="BackgroundImageFix" result="shape"/><feColorMatrix in="SourceAlpha" values="0 0 0 0 0 0 0 0 0 0 0 0 0 0 0 0 0 0 127 0" result="hardAlpha"/><feOffset dy="-.02"/><feGaussianBlur stdDeviation=".5"/><feComposite in2="hardAlpha" operator="arithmetic" k2="-1" k3="1"/><feColorMatrix values="0 0 0 0 0.247059 0 0 0 0 0.501961 0 0 0 0 0.964706 0 0 0 1 0"/><feBlend in2="shape" result="effect1_innerShadow_7143_6226"/></filter><filter id="n" x="20.75" y="1.813" width="10.5" height="10.5" filterUnits="userSpaceOnUse" color-interpolation-filters="sRGB"><feFlood flood-opacity="0" result="BackgroundImageFix"/><feBlend in="SourceGraphic" in2="BackgroundImageFix" result="shape"/><feGaussianBlur stdDeviation="1.5" result="effect1_foregroundBlur_7143_6226"/></filter><filter id="o" x="19.688" y="18.25" width="10.5" height="10.5" filterUnits="userSpaceOnUse" color-interpolation-filters="sRGB"><feFlood flood-opacity="0" result="BackgroundImageFix"/><feBlend in="SourceGraphic" in2="BackgroundImageFix" result="shape"/><feGaussianBlur stdDeviation="1.5" result="effect1_foregroundBlur_7143_6226"/></filter><filter id="p" x="4.563" y="16.188" width="9.375" height="9.375" filterUnits="userSpaceOnUse" color-interpolation-filters="sRGB"><feFlood flood-opacity="0" result="BackgroundImageFix"/><feBlend in="SourceGraphic" in2="BackgroundImageFix" result="shape"/><feGaussianBlur stdDeviation="1.5" result="effect1_foregroundBlur_7143_6226"/></filter><linearGradient id="d" x1="6.625" y1="17.75" x2="3.25" y2="16.285" gradientUnits="userSpaceOnUse"><stop offset=".147" stop-color="#74B5CA" stop-opacity="0"/><stop offset=".946" stop-color="#74B5CA"/></linearGradient><linearGradient id="m" x1="19.875" y1="5.938" x2="17.813" y2="2" gradientUnits="userSpaceOnUse"><stop offset=".147" stop-color="#74B5CA" stop-opacity="0"/><stop offset=".946" stop-color="#74B5CA"/></linearGradient></defs></svg>
